!!!id: bhatk3186s
!!!vol: 3
!!!page: 186
!!!sthayee: Ata sugama rupa
!!!raag: bihag
!!!taal: teentaal
!!!tempo: madhyalaya
**kern
!!data: // >SP  P  >PG  M/  G  >RS  -  N,/  >N,P,  -  N,  N,/  S  -  G  M/
==1
cq
4g
4g
gq
4e
4f
=
4e
dq
2c
4B
=
Bq
2G
4B
4B
=
2c
4e
4f
!!data: // >MP  %P  >PG  M/  GR  >RS  -  N,/  P,  -  N,  N,/  S  -  G  G/ 
==2
fq
4g
4gS
gq
4e
4f
=
8e
8d
dq
2c
4B
=
2G
4B
4B
=
2c
4e
4e
!!data: // >RN,  S  >MG  M/  P  -  >PS'  N/  >DP  P  >PG  M/  [G  -  S]  S/
==3
dq
4B
4c
fq
4e
4f
=
2g
gq
4cc
4b
=
aq
4g
4g
gq
4e
4f
=
2eH
4ch
4c
==
*-
